X:14
T:Jack of the Green. ThoH.014
Q:1/2=90
M:3/2
L:1/8
B:Thompson's Compleat Collection of 120 Favourite Hornpipes.
Z:Village Music Project, Simon Wilson 2016
O:England.
K:D
C3E DEFDE4|efe2E3AF2ED|C3E DEFDE4|dcd2D3AF2ED:|
|:d3fe2dc BA B/c/d/B/|efe2E3AF2ED|d3fe2dc BA B/c/d/B/|dcd2D3AF2ED:|
|:afd2ecA2BcdB|efe2E3AF2ED|afd2ecA2BcdB|dcd2D3AF2ED:|

